!!!!SEGMENT: pl-sa--481-a-viii-121--006_anonim--la-bellone.krn
!!!cenid: 18xx:377
!!!COM: Anonim
!!!COM-rismid: pe30004985
!!!CDT:
!!!CNT:
!!!OTL: La Bellone
!!!PDT:
!!!AGN: Secular
!!!SMS-siglum: PL-SA
!!!SMS-shelfmark: 481/A VIII 121
!!!SMS-shelfwork: 006 W
!!!SMS-variant:
!!!SMS-altvar:
!!!NIFC-rismid: 1001070453
!!!URL-scan: http://bc.bdsandomierz.pl/dlibra/publication/1212/edition/1171/content
!!!ONB-nifc: Str. 5 (s. 4) – str. 6 (s. 1)
**kern	**kern
*part1	*part1
*staff2	*staff1
*Ipiano	*Iempty
*I"Piano	*
*I'P-no	*
*clefF4	*clefG2
*k[b-]	*k[b-]
*F:	*F:
*M2/4	*M2/4
*>[A,B,B,C,D,A,B,C]	*>[A,B,B,C,D,A,B,C]
*>A	*>A
!	!LO:TX:a:i:t=La Bellone
!	!LO:TUP:a:problem:klamra łukowa
8r	24cc\LL
.	24dd\
.	24ee\JJ
=1	=1
!LO:TX:a:t=P:problem:mixed beam	!
8FF/L	8ffL 8a\
8F\	8ff 8a\
8C\	8ff 8a\
8AA\J	8ffJ 8a\
=2	=2
!	!LO:TX:a:t=P:problem:mixed beam
4FF/	16ff\LL
.	16f/
.	16g/
.	16a/JJ
4F\	16b-\LL
.	16cc\
.	16dd\
.	16ee\JJ
=3	=3
4F 4FF/	8ffL 8a\
.	8ff 8a\
4F 4FF/	8aa 8cc\
.	8aaJ 8cc\
=4	=4
!LO:TX:a:t=P:problem:mixed beam	!
8C/L	8ggL 8b-\
8c\	8gg 8b-\
8C/J	8ggJ 8b-\
8r	8r
!LO:LB:g=original	!LO:LB:g=original
=5	=5
!LO:TX:a:t=P:problem:mixed beam	!
8C/L	8ggL 8ee\
8c\	8gg 8ee\
8G\	8gg 8ee\
8E\J	8ggJ 8ee\
=6	=6
!	!LO:TX:a:t=P:problem:mixed beam
8C/	16gg\LL
.	16g/
8r	16a/
.	16b-/JJ
8C/	16cc\LL
.	16dd\
8r	16ee\
.	16ff\JJ
=7	=7
4C/	8ggL 8b-\
.	8gg 8b-\
8r	8gg 8b-\
8B- 8C\	8ggJ 8b-\
=	=
8AL 8F\	8ffL 8a\
8c\	8ff 8a\
8AJ 8F\	8ffJ 8a\
==8	==8;
8r	16a\LL
.	16b-\JJ
=9!|:	=9!|:
*>B	*>B
8AL 8F\	16cc\LL
.	16dd\
8c\J	16cc\
.	16dd\JJ
*rep	*
8AL 8F\	16cc\LL
.	16b-\
8c\J	16a\
.	16b-\JJ
*Xrep	*
=10	=10
8AL 8F\	8cc\L
8c\	8cc\J
8AJ 8F\	8cc\L
8r	16g\L
.	16a\JJ
=11	=11
8EL 8C\	16b-\LL
.	16cc\
8G\J	16b-\
.	16cc\JJ
*rep	*
8EL 8C\	16b-/LL
.	16a/
8G\J	16g/
.	16a/JJ
*Xrep	*
=12	=12
8EL 8C\	8b-/L
8G\	8b-/J
8EJ 8C\	8b-/L
8r	16a/L
.	16b-/JJ
=13:|!	=13:|!
*>C	*>C
8AL 8F\	16cc\LL
.	16dd\
8c\J	16cc\
.	16dd\JJ
*rep	*
8AL 8F\	16cc\LL
.	16b-\
8c\J	16a\
.	16b-\JJ
*Xrep	*
=14	=14
*rep	*
8AL 8F\	16cc\LL
.	16dd\
8c\J	16ee\
.	16ff\JJ
*Xrep	*
*rep	*
8AL 8F\	16gg\LL
.	16aa\
8c\J	16bb-\
.	16aa\JJ
*Xrep	*
=15	=15
8B-L 8C\	16gg\LL
.	16ff\
8c\J	16ee\
.	16dd\JJ
*rep	*
8B-L 8C\	16cc\LL
.	16b-\
8c\J	16a\
.	16g\JJ
*Xrep	*
=	=
8AL 8F\	8f/L
8c\	8f/
8AJ 8F\	8f/J
!LO:TX:a:t=[segno]:problem:znak segno na kresce taktowej	!LO:TX:a:t=[segno]:problem:znak segno na kresce taktowej
!LO:PB:g=original	!LO:PB:g=original
==16	==16
*>D	*>D
8r	16a\LL
.	16b-\JJ
=17	=17
8AL 8F\	4.cc\
8c\	.
8A 8F\	.
8c\J	8a/
=18	=18
8B-L 8C\	8g/L
8c\J	8f/
*rep	*
8B-L 8C\	8g/
8c\J	8a/J
*Xrep	*
=19	=19
8AL 8F\	4.cc\
8c\J	.
*rep	*
8AL 8F\	.
8c\J	8a/
*Xrep	*
=20	=20
8EL 8C\	8g/L
8G\	16g/L
.	16e/JJ
!	!LO:TX:a:t=P:problem:mixed beam
8EJ 8C\	8c/L
8r	16a\L
.	16b-\JJ
=21	=21
8AL 8F\	4.cc\
8c\J	.
*rep	*
8AL 8F\	.
8c\J	8a/
*Xrep	*
=22	=22
8B-L 8C\	8g/L
8c\J	8f/
*rep	*
8B-L 8C\	8g/
8c\J	8a/J
*Xrep	*
=23	=23
8AL 8F\	4.cc\
8c\J	.
8EL 8C\	.
8G\J	8a/
=24	=24
8AL 8F\	4g/
8c\	.
!	!LO:TX:b:t=D.C&colon; la Bellone
8AJ 8F\	8f/
!LO:TX:a:t=[segno]:problem:znak segno na kresce taktowej	!LO:TX:a:t=[segno]:problem:znak segno na kresce taktowej
==	==
*-	*-
!!!system-decoration: {s1,s2}
!!!ENC: Marta Lawrence
!!!END: 2020-11-19
!!!ENC: Marcin Jachim
!!!END: 2020-06-14
